X: 14988
T: Genevieve's
R: waltz
M: 3/4
K: Amajor
E|:"A" c>dc "E7" BAG|"F#m" A>Bc "A7" E2E|"D" F>Ad "A" cEc|"B7" c>BA "E7" B2E|
"A" c>dc "E7" BAG|"F#m" A>Bc "A7" E2E|"D" FAd "A" cEc|1 "E7" B>AG A2E:|2 "E" B>AG "A" A2e||
"D" f>ff fga|"A" e2d "F#m" c>BA|"D" d>ed "A" cBA|"B7" FGA "E7" B2e|
"D" f>ff fga|"A" e2d "F#m" c>BA|"D" d>ed "A" cBA|"D" FA"E7"G "A" A2e|
"D" f>ff fga|"A" e2d "F#m" c>BA|"D" d>ef "A" ecA|"B7" FGA "E" B2E|
"A" c>dc "E7" BAG|"F#m" A> Bc "A7" E2E|"D" F>Ad "A" cEc|"E7" B>AG "A" A3||

